X:1
T:W. Scott Collins
M:2/4
L:1/8
R:Hornpipe
C:J. Scott Skinner (1843-1927)
S:Skinner – Harp and Claymore (1904)
Z:AK/Fiddler’s Companion
K:C
(G/>F/) | E/>F/^F/>G/ (3A/G/F/ G/>c/ | A/>B/c/>^c/ (3e/d/c/ d/>=c/ | (B/>c/^c/>d ^d/>e/f/>^f/) |
(3a/g/^f/ g/>c'/ e'G/>=F/ | E/>F/^F/>G/ (3A/G/F/ G/>c/ | A/>B/c/>^c/ (3e/d/c/ d/>=c/ | (B/>c/^c/>d ^d/>e/f/>^f/) |g/ z/ B c :|
|: e/>f/ | g (3b/a/g/ f (3a/g/f/ | e (3g/f/e d (3.f/.e/(.d/ | c/>)(B/ c/>)(G/ A/>)(c/f/>)(a/ | g/>)(e/c/>)(e/ d).e/>.f/ |
(3.g/.^f/.g/ (3.b/.a/.g/ (3.=f/.e/.f/ (3.a/.g/.f/ | (3.e/.^d/.e/ (3.g/.f/.e/ (3.=d/.^c/.d/ (3.f/.e/(.d/ |=c/>)(B/c/>)(G/ A/>)(c/f/>)(a/|g/>)(c'b/>)(d'/ c') :|]

